!!!COM: Debussy, (Achille-)Claude
!!!OTL: [T185_Deb-w42p21s1-2]
**kern	**dynam	**kern	**dynam	**kern	**dynam	**kern	**dynam	**kern	**dynam	**kern	**kern	**dynam	**kern	**kern	**kern	**kern	**kern	**dynam	**kern	**dynam	**kern	**dynam	**kern	**dynam	**kern	**dynam	**kern	**dynam	**kern	**dynam	**kern	**dynam
*part16	*part16	*part15	*part15	*part14	*part14	*part13	*part13	*part12	*part12	*part11	*part11	*part11	*part10	*part10	*part9	*part9	*part8	*part8	*part7	*part7	*part6	*part6	*part5	*part5	*part4	*part4	*part3	*part3	*part2	*part2	*part1	*part1
*staff19	*	*staff18	*	*staff17	*	*staff16	*	*staff15	*	*staff14	*staff13	*	*staff12	*staff11	*staff10	*staff9	*staff8	*	*staff7	*	*staff6	*	*staff5	*	*staff4	*	*staff3	*	*staff2	*	*staff1	*
*I"Contrabass	*	*I"Violoncello	*	*I"Viola	*	*I"Violin 2	*	*I"Violin 1	*	*I"Piano	*	*	*I"Celesta	*	*I"Harp	*	*I"Tenor Drum	*	*I"Trumpet in C	*	*I"Horn in F	*	*I"Bassoon	*	*I"Clarinet in Bb	*	*I"English Horn	*	*I"Oboe	*	*I"Flute	*
*I'Cb.	*	*I'Vc.	*	*I'Vla.	*	*I'Vln. 2	*	*I'Vln. 1	*	*I'Pno.	*	*	*I'Cel.	*	*I'Hp.	*	*I'T. D.	*	*I'C Tpt.	*	*I'Hn.	*	*I'Bsn.	*	*I'Cl.	*	*I'Eng. Hn.	*	*I'Ob.	*	*I'Fl.	*
!!pagebreak:original
*	*	*	*	*	*	*	*	*	*	*	*	*	*	*	*	*	*stria1	*	*	*	*	*	*	*	*	*	*	*	*	*	*	*
*clefF4	*	*clefF4	*	*clefC3	*	*clefG2	*	*clefG2	*	*clefF4	*clefG2	*	*clefF4	*clefG2	*clefF4	*clefG2	*clefX	*	*clefG2	*	*clefG2	*	*clefF4	*	*clefG2	*	*clefG2	*	*clefG2	*	*clefG2	*
*ITrd0c0	*	*	*	*	*	*	*	*	*	*	*	*	*ITrd0c0	*ITrd0c0	*	*	*	*	*	*	*ITrd4c7	*	*	*	*ITrd1c2	*	*ITrd4c7	*	*	*	*	*
*k[b-e-]	*	*k[b-e-]	*	*k[b-e-]	*	*k[b-e-]	*	*k[b-e-]	*	*k[b-e-]	*k[b-e-]	*	*k[b-e-]	*k[b-e-]	*k[b-e-]	*k[b-e-]	*k[]	*	*k[b-e-]	*	*k[b-e-]	*	*k[b-e-]	*	*k[b-e-]	*	*k[b-e-]	*	*k[b-e-]	*	*k[b-e-]	*
*B-:	*	*B-:	*	*B-:	*	*B-:	*	*B-:	*	*B-:	*B-:	*	*B-:	*B-:	*B-:	*B-:	*C:	*	*B-:	*	*B-:	*	*B-:	*	*B-:	*	*B-:	*	*B-:	*	*B-:	*
*M6/16	*	*M6/16	*	*M6/16	*	*M6/16	*	*M6/16	*	*M6/16	*M6/16	*	*M6/16	*M6/16	*M6/16	*M6/16	*M6/16	*	*M6/16	*	*M6/16	*	*M6/16	*	*M6/16	*	*M6/16	*	*M6/16	*	*M6/16	*
=1	=1	=1	=1	=1	=1	=1	=1	=1	=1	=1	=1	=1	=1	=1	=1	=1	=1	=1	=1	=1	=1	=1	=1	=1	=1	=1	=1	=1	=1	=1	=1	=1
!	!	!	!	!LO:TX:a:t=[avec le bois de l'archet]	!	!	!	!	!	!	!	!	!	!	!	!	!	!	!LO:TX:b:t=[f tres guerrier]	!	!	!	!	!	!	!	!	!	!LO:TX:t=[eighth-dot]=160	!	!	!
!	!	!LO:TX:b:t=[p]	!	!LO:TX:b:t=[p]	!	!	!	!LO:TX:t=[eighth-dot]=160	!	!	!	!	!	!	!	!	!LO:TX:b:t=[p]	!	!LO:TX:a:t=[Sourdine]	!	!	!	!	!	!	!	!	!	!LO:TX:b:t=[mp]	!	!LO:TX:t=[eighth-dot]=160	!
8%3r	.	4.G-X	.	8G-X'	.	8%3r	.	8%3r	.	8%3r	8%3r	.	8%3r	8%3r	8%3r	8%3r	[4.Ret/	.	16b-LL	.	8%3r	.	8%3r	.	8%3r	.	8%3r	.	16b-'))	.	8%3r	.
.	.	.	.	.	.	.	.	.	.	.	.	.	.	.	.	.	.	.	16r	.	.	.	.	.	.	.	.	.	16r	.	.	.
.	.	.	.	16r	.	.	.	.	.	.	.	.	.	.	.	.	.	.	(16b-JJ	.	.	.	.	.	.	.	.	.	16r	.	.	.
.	.	.	.	8G-'	.	.	.	.	.	.	.	.	.	.	.	.	.	.	16ddLL)	.	.	.	.	.	.	.	.	.	16dd'	.	.	.
.	.	.	.	.	.	.	.	.	.	.	.	.	.	.	.	.	.	.	16r	.	.	.	.	.	.	.	.	.	16r	.	.	.
.	.	.	.	16r	.	.	.	.	.	.	.	.	.	.	.	.	.	.	(16ddJJ	.	.	.	.	.	.	.	.	.	16r	.	.	.
=2	=2	=2	=2	=2	=2	=2	=2	=2	=2	=2	=2	=2	=2	=2	=2	=2	=2	=2	=2	=2	=2	=2	=2	=2	=2	=2	=2	=2	=2	=2	=2	=2
*	*	*tremolo	*	*	*	*	*	*	*	*	*	*	*	*	*	*	*	*	*	*	*	*	*	*	*	*	*	*	*	*	*	*
!	!	!LO:TX:b:i:t=cresc.	!	!	!	!	!	!	!	!	!	!	!	!	!	!	!LO:TX:b:i:t=cresc.	!	!	!	!	!	!	!	!	!	!	!	!	!	!	!
8%3r	.	16G-XLL	.	8G-X'	.	8%3r	.	8%3r	.	8%3r	8%3r	.	8%3r	8%3r	8%3r	8%3r	4.Re/_	.	8.b-)	.	8%3r	.	8%3r	.	8%3r	.	8%3r	.	16b-'	.	8%3r	.
.	.	16G-X	.	.	.	.	.	.	.	.	.	.	.	.	.	.	.	.	.	.	.	.	.	.	.	.	.	.	16r	.	.	.
.	.	16G-X	.	16r	.	.	.	.	.	.	.	.	.	.	.	.	.	.	.	.	.	.	.	.	.	.	.	.	16r	.	.	.
.	.	16G-X	.	8r	.	.	.	.	.	.	.	.	.	.	.	.	.	.	8.r	.	.	.	.	.	.	.	.	.	8.r	.	.	.
.	.	16G-X	.	.	.	.	.	.	.	.	.	.	.	.	.	.	.	.	.	.	.	.	.	.	.	.	.	.	.	.	.	.
.	.	16G-XJJ	.	16r	.	.	.	.	.	.	.	.	.	.	.	.	.	.	.	.	.	.	.	.	.	.	.	.	.	.	.	.
=3	=3	=3	=3	=3	=3	=3	=3	=3	=3	=3	=3	=3	=3	=3	=3	=3	=3	=3	=3	=3	=3	=3	=3	=3	=3	=3	=3	=3	=3	=3	=3	=3
!	!	!	!	!LO:TX:a:t=arco	!	!	!	!	!	!	!	!	!	!	!	!	!	!	!	!	!	!	!LO:TX:a:t=à2	!	!LO:TX:b:t=2	!	!	!	!	!	!	!
8%3r	.	16G-XLL	.	8%3r	.	8%3r	.	8%3r	.	8%3r	8%3r	.	8%3r	8%3r	8%3r	8%3r	4.Re/]	.	8%3r	.	8%3r	.	8%3r	.	8%3r	f	8%3r	.	8%3r	.	8%3r	.
.	.	16G-X	.	.	.	.	.	.	.	.	.	.	.	.	.	.	.	.	.	.	.	.	.	.	.	.	.	.	.	.	.	.
.	.	16G-X	.	.	.	.	.	.	.	.	.	.	.	.	.	.	.	.	.	.	.	.	.	.	.	.	.	.	.	.	.	.
.	.	16G-X	.	.	.	.	.	.	.	.	.	.	.	.	.	.	.	.	.	.	.	.	.	.	.	.	.	.	.	.	.	.
.	.	16G-X	.	.	.	.	.	.	.	.	.	.	.	.	.	.	.	.	.	.	.	.	.	.	.	.	.	.	.	.	.	.
.	.	16G-XJJ	.	.	.	.	.	.	.	.	.	.	.	.	.	.	.	.	.	.	.	.	.	.	.	.	.	.	.	.	.	.
*	*	*Xtremolo	*	*	*	*	*	*	*	*	*	*	*	*	*	*	*	*	*	*	*	*	*	*	*	*	*	*	*	*	*	*
=4	=4	=4	=4	=4	=4	=4	=4	=4	=4	=4	=4	=4	=4	=4	=4	=4	=4	=4	=4	=4	=4	=4	=4	=4	=4	=4	=4	=4	=4	=4	=4	=4
*	*	*	*	*	*	*	*	*	*	*	*	*	*	*	*	*	*	*	*	*	*	*	*	*	*^	*	*	*	*	*	*	*
!	!	!	!	!	!	!	!	!	!	!	!	!	!	!	!	!	!	!	!	!	!	!	!	!	!LO:TX:a:t=1	!	!	!	!	!	!	!	!
8%3r	.	8.G-Xt	f <	8.G-Xt	f <	8.r	.	8%3r	.	8%3r	8%3r	.	8%3r	8%3r	8%3r	8%3r	8Re/	f	8%3r	.	8%3r	.	8.G-X^^	f	8r	8.G-Xt	.	8%3r	.	8%3r	.	8%3r	.
.	.	.	.	.	.	.	.	.	.	.	.	.	.	.	.	.	16r	.	.	.	.	.	.	.	16r	.	.	.	.	.	.	.	.
!	!	!	!	!	!	!LO:TX:a:t=pizz.	!	!	!	!	!	!	!	!	!	!	!	!	!	!	!	!	!	!	!	!	!	!	!	!	!	!	!
.	.	8.GnT	.	8.GnT	.	8.Gn	f <	.	.	.	.	.	.	.	.	.	8r	.	.	.	.	.	8.Gn^^	<	8.GT	8r	<	.	.	.	.	.	.
.	.	.	.	.	.	.	.	.	.	.	.	.	.	.	.	.	16r	.	.	.	.	.	.	.	.	16r	.	.	.	.	.	.	.
=5	=5	=5	=5	=5	=5	=5	=5	=5	=5	=5	=5	=5	=5	=5	=5	=5	=5	=5	=5	=5	=5	=5	=5	=5	=5	=5	=5	=5	=5	=5	=5	=5	=5
8%3r	.	8.A-XT	.	8.A-XT	.	8.A-X	.	8r	.	8r	8r	.	8%3r	8%3r	8%3r	8%3r	8%3r	.	8%3r	.	8%3r	.	8.A-X^^	.	8r	8.A-XT	.	8%3r	.	8r	.	8%3r	.
.	.	.	.	.	.	.	.	16r	.	16r	16r	.	.	.	.	.	.	.	.	.	.	.	.	.	16r	.	.	.	.	16r	.	.	.
.	.	8.Ant	[	8.Ant	[	8.An	[	16r	.	16r	16r	.	.	.	.	.	.	.	.	.	.	.	8.An^^	[	8.At	8r	[	.	.	16r	.	.	.
.	.	.	.	.	.	.	.	16r	.	16r	16r	.	.	.	.	.	.	.	.	.	.	.	.	.	.	.	.	.	.	16r	.	.	.
*	*	*	*	*	*	*	*	*	*	*clefG2	*	*	*	*	*	*	*	*	*	*	*	*	*	*	*	*	*	*	*	*	*	*	*
!	!	!	!	!	!	!	!	!	!	!	!	!	!	!	!	!	!	!	!	!	!	!	!	!	!	!	!	!	!	!LO:TX:a:t=à2	!	!	!
.	.	.	.	.	.	.	.	(16f	ff	16f	(16ff	ff	.	.	.	.	.	.	.	.	.	.	.	.	.	16r	.	.	.	(16f	f	.	.
*	*	*	*	*	*	*	*	*	*	*	*	*	*	*	*	*	*	*	*	*	*	*	*	*	*v	*v	*	*	*	*	*	*	*
!!pagebreak:original
=6	=6	=6	=6	=6	=6	=6	=6	=6	=6	=6	=6	=6	=6	=6	=6	=6	=6	=6	=6	=6	=6	=6	=6	=6	=6	=6	=6	=6	=6	=6	=6	=6
!	!	!	!	!	!	!	!	!	!	!	!	!	!	!	!	!	!	!	!LO:TX:b:t=la 2de sans Sourdine	!	!	!	!	!	!	!	!	!	!	!	!	!
!	!	!	!	!	!	!	!	!	!	!	!	!	!	!	!	!	!	!	!LO:TX:a:t=à 2.	!	!	!	!	!	!	!	!	!	!	!	!	!
!LO:TX:a:t=pizz.	!	!	!	!	!	!LO:TX:a:t=arco	!	!	!	!	!	!	!	!	!	!	!LO:TX:a:t=pas de charge	!	!LO:TX:a:t=Sourdine (1ère)	!	!	!	!	!	!	!	!	!	!	!	!LO:TX:a:t=à 2.	!
.	.	.	.	.	.	.	.	.	.	.	.	.	.	.	.	.	8qRe/	f	.	.	.	.	.	.	.	.	.	.	.	.	.	.
*	*	*	*	*	*	*	*	*	*	*	*	*	*	*	*	*	*	*	*	*	*	*	*clefC4	*	*	*	*	*	*	*	*	*
8B-	ff	8B-X	ff	8B-Xu 8d	ff	16B-XLL 16d	ff	16ddLL)	.	16ddLL	16dddLL)	.	8%3r	8%3r	8%3r	8%3r	16Re'\	.	8b-'L	fff	8B-'L 8d	ff	8B-'L 8d	ff	16r	.	16dd'	ff	16ddLL)	.	8bb-'L	ff
.	.	.	.	.	.	16B- 16d	.	16r	.	16r	16r	.	.	.	.	.	16r	.	.	.	.	.	.	.	16r	.	16r	.	16r	.	.	.
16r	.	16r	.	16r	.	16B-JJ 16d	.	(16ddJJ	.	16ddJJ	(16dddJJ	.	.	.	.	.	16r	.	8b-'	.	16r	.	16r	.	(16B- 16d	ff	16r	.	(16ddJJ	.	8bb-'	.
.	.	.	.	.	.	.	.	.	.	.	.	.	.	.	.	.	8qRe/	.	.	.	.	.	.	.	.	.	.	.	.	.	.	.
8r	.	8r	.	8c-Xu 8e-	.	16c-XLL 16e-	.	16b-LL)	.	16b-LL	16bb-LL)	.	.	.	.	.	16Re'\	.	.	.	8c-X'J 8e-	.	8c-X'J 8e-	.	16c-XLL 16e-)	.	16b-'	.	16b-LL)	.	.	.
.	.	.	.	.	.	16c- 16e-	.	16r	.	16r	16r	.	.	.	.	.	16r	.	8b-'J	.	.	.	.	.	16r	.	16r	.	16r	.	8bb-'J	.
16r	.	16r	.	16r	.	16c-JJ 16e-	.	(16b-JJ	.	16b-JJ	(16bb-JJ	.	.	.	.	.	16r	.	.	.	16r	.	16r	.	(16c-JJ 16e-	.	16r	.	(16b-JJ	.	.	.
=7	=7	=7	=7	=7	=7	=7	=7	=7	=7	=7	=7	=7	=7	=7	=7	=7	=7	=7	=7	=7	=7	=7	=7	=7	=7	=7	=7	=7	=7	=7	=7	=7
.	.	.	.	.	.	.	.	.	.	.	.	.	.	.	.	.	8qRe/	.	.	.	.	.	.	.	.	.	.	.	.	.	.	.
8%3r	.	8%3r	.	8cnu 8en	.	16cnLL 16en	.	16fLL)	.	16fLL	16ffLL)	.	8%3r	8%3r	8%3r	8%3r	16Re'\	.	8f'L	.	8c'L 8e	.	8cn'L 8en	.	16cLL 16eX)	.	16f'	.	16fLL)	.	8ff'L	.
.	.	.	.	.	.	16c 16e	.	16r	.	16r	16r	.	.	.	.	.	16r	.	.	.	.	.	.	.	16r	.	16r	.	16r	.	.	.
.	.	.	.	16r	.	16cJJ 16e	.	16f'JJ	.	16f'JJ	16ff'JJ	.	.	.	.	.	16r	.	8f'	.	16r	.	16r	.	(16cJJ 16e	.	16r	.	16fJJ	.	8ff'	.
.	.	.	.	.	.	.	.	.	.	.	.	.	.	.	.	.	8qRe/	.	.	.	.	.	.	.	.	.	.	.	.	.	.	.
.	.	.	.	8c-Xu 8e-X	.	16c-XLL 16e-X	.	16f'LL	.	16f'LL	16ff'LL	.	.	.	.	.	16Re'\	.	.	.	8c-X'J 8e-X	.	8c-X'J 8e-X	.	16c-XLL 16e-)	.	8r	.	16fLL	.	.	.
.	.	.	.	.	.	16c- 16e-	.	16r	.	16r	16r	.	.	.	.	.	16r	.	8f'J	.	.	.	.	.	16r	.	.	.	16r	.	8ff'J	.
.	.	.	.	16r	.	16c-JJ 16e-	.	(16fJJ	.	16fJJ	(16ffJJ	.	.	.	.	.	16r	.	.	.	16r	.	16r	.	(16c-JJ 16e-	.	16r	.	(16fJJ	.	.	.
=8	=8	=8	=8	=8	=8	=8	=8	=8	=8	=8	=8	=8	=8	=8	=8	=8	=8	=8	=8	=8	=8	=8	=8	=8	=8	=8	=8	=8	=8	=8	=8	=8
.	.	.	.	.	.	.	.	.	.	.	.	.	.	.	.	.	8qRe/	.	.	.	.	.	.	.	.	.	.	.	.	.	.	.
8B-	.	8BB- 8F 8d	.	8B- 8d	.	16B-LL 16d	.	16ddLL)	.	16ddLL	16dddLL)	.	8%3r	8%3r	8%3r	8%3r	16Re'\	.	8b-'L	.	8B-'L 8d	.	8B-'L 8d	.	16B-LL 16d)	.	16dd'	.	16ddLL)	.	8bb-'L	.
.	.	.	.	.	.	16B- 16d	.	16r	.	16r	16r	.	.	.	.	.	16r	.	.	.	.	.	.	.	16r	.	16r	.	16r	.	.	.
16r	.	16r	.	16r	.	16B-JJ 16d	.	(16ddJJ	.	16ddJJ	(16dddJJ	.	.	.	.	.	16r	.	16b-'L	.	16r	.	16r	.	(16B-JJ 16d	.	16r	.	(16ddJJ	.	16bb-'L	.
.	.	.	.	.	.	.	.	.	.	.	.	.	.	.	.	.	8qRe/	.	.	.	.	.	.	.	.	.	.	.	.	.	.	.
8r	.	8r	.	8c-X 8e-	.	16c-XLL 16e-	.	16b-LL)	.	16b-LL	16bb-LL)	.	.	.	.	.	16Re'\	.	16dd'	.	8c-X'J 8e-	.	8c-X'J 8e-	.	16c-XLL 16e-)	.	16b-'	.	16b-LL)	.	16ddd'	.
.	.	.	.	.	.	16c- 16e-	.	16r	.	16r	16r	.	.	.	.	.	16r	.	16b-'	.	.	.	.	.	16r	.	16r	.	16r	.	16bb-'	.
16r	.	16r	.	16r	.	16c-JJ 16e-	.	(16b-JJ	.	16b-JJ	(16bb-JJ	.	.	.	.	.	16r	.	16dd'JJ	.	16r	.	16r	.	(16c-JJ 16e-	.	16r	.	(16b-JJ	.	16ddd'JJ	.
=9	=9	=9	=9	=9	=9	=9	=9	=9	=9	=9	=9	=9	=9	=9	=9	=9	=9	=9	=9	=9	=9	=9	=9	=9	=9	=9	=9	=9	=9	=9	=9	=9
*	*	*	*	*	*	*tremolo	*	*	*	*	*	*	*	*	*	*	*	*	*	*	*	*	*	*	*	*	*	*	*	*	*	*
.	.	.	.	.	.	.	.	.	.	.	.	.	.	.	.	.	8qRe/	.	.	.	.	.	.	.	.	.	.	.	.	.	.	.
8%3r	.	8%3r	.	8cn 8en	.	16cn 16enLL	.	8.f)	.	8.f	8.ff)	.	8%3r	8%3r	8%3r	8%3r	16Re'\	.	8ff'L	.	8c'L 8e	.	8cn'L 8en	.	16cLL 16eX)	.	16f'	.	8.f)	.	8fff'L	.
.	.	.	.	.	.	16cn 16en	.	.	.	.	.	.	.	.	.	.	16r	.	.	.	.	.	.	.	16r	.	16r	.	.	.	.	.
.	.	.	.	16r	.	16cn 16enJJ	.	.	.	.	.	.	.	.	.	.	16r	.	8ff'	.	16r	.	16r	.	(16cJJ 16e	.	16r	.	.	.	8fff'	.
.	.	.	.	.	.	.	.	.	.	.	.	.	.	.	.	.	8qRe/	.	.	.	.	.	.	.	.	.	.	.	.	.	.	.
.	.	.	.	8c-X 8e-X	.	16c-X 16e-XLL	.	16r	.	16r	16r	.	.	.	.	.	16Re'\	.	.	.	8c-X'J 8e-X	.	8c-X'J 8e-X	.	16c-XLL 16e-)	.	8r	.	16r	.	.	.
.	.	.	.	.	.	16c-X 16e-X	.	16r	.	16r	16r	.	.	.	.	.	16r	.	8ff'J	.	.	.	.	.	16r	.	.	.	16r	.	8fff'J	.
.	.	.	.	16r	.	16c-X 16e-XJJ	.	(16f	.	16f	(16ff	.	.	.	.	.	16r	.	.	.	16r	.	16r	.	(16c-JJ 16e-	.	16r	.	16f	.	.	.
=10	=10	=10	=10	=10	=10	=10	=10	=10	=10	=10	=10	=10	=10	=10	=10	=10	=10	=10	=10	=10	=10	=10	=10	=10	=10	=10	=10	=10	=10	=10	=10	=10
.	.	.	.	.	.	.	.	.	.	.	.	.	.	.	.	.	8qRe/	.	.	.	.	.	.	.	.	.	.	.	.	.	.	.
8B-'	.	8BB-' 8F 8d	.	8B- 8d	.	16B- 16dLL	.	16ddLL)	.	16ddLL	16dddLL)	.	8%3r	8%3r	8%3r	8%3r	16Re'\	.	8b-'L	.	8B-'L 8d	.	8B-'L 8d	.	16B-LL 16d)	.	16f'	.	16fLL	.	8bb-'L	.
.	.	.	.	.	.	16B- 16d	.	16r	.	16r	16r	.	.	.	.	.	16r	.	.	.	.	.	.	.	16r	.	16r	.	16b-	.	.	.
16r	.	16r	.	16r	.	16B- 16dJJ	.	(16ddJJ	.	16ddJJ	(16dddJJ	.	.	.	.	.	16r	.	8b-'	.	16r	.	16r	.	(16B-JJ 16d	.	16r	.	16fJJ	.	8bb-'	.
.	.	.	.	.	.	.	.	.	.	.	.	.	.	.	.	.	8qRe/	.	.	.	.	.	.	.	.	.	.	.	.	.	.	.
8r	.	8r	.	8c-X 8e-	.	16c-X 16e-LL	.	16b-LL)	.	16b-LL	16bb-LL)	.	.	.	.	.	16Re'\	.	.	.	8c-X'J 8e-	.	8c-X'J 8e-	.	16c-XLL 16e-)	.	16f'	.	16fLL	.	.	.
.	.	.	.	.	.	16c-X 16e-	.	16r	.	16r	16r	.	.	.	.	.	16r	.	8b-'J	.	.	.	.	.	16r	.	16r	.	16b-	.	8bb-'J	.
16r	.	16r	.	16r	.	16c-X 16e-JJ	.	(16b-JJ	.	16b-JJ	(16bb-JJ	.	.	.	.	.	16r	.	.	.	16r	.	16r	.	(16c-JJ 16e-	.	16r	.	16fJJ	.	.	.
=11	=11	=11	=11	=11	=11	=11	=11	=11	=11	=11	=11	=11	=11	=11	=11	=11	=11	=11	=11	=11	=11	=11	=11	=11	=11	=11	=11	=11	=11	=11	=11	=11
.	.	.	.	.	.	.	.	.	.	.	.	.	.	.	.	.	8qRe/	.	.	.	.	.	.	.	.	.	.	.	.	.	.	.
8%3r	.	8%3r	.	8cn 8en	.	16cn 16enLL	.	16fLL)	.	16fLL	16ffLL)	.	8%3r	8%3r	8%3r	8%3r	16Re'\	.	8f'L	.	8c'L 8e	.	8cn'L 8en	.	16cLL 16eX)	.	16f'	.	16fLL	.	8ff'L	.
.	.	.	.	.	.	16cn 16en	.	16r	.	16r	16r	.	.	.	.	.	16r	.	.	.	.	.	.	.	16r	.	16r	.	16r	.	.	.
.	.	.	.	16r	.	16cn 16enJJ	.	16f'JJ	.	16f'JJ	16ff'JJ	.	.	.	.	.	16r	.	8f'	.	16r	.	16r	.	(16cJJ 16e	.	16r	.	16fJJ	.	8ff'	.
.	.	.	.	.	.	.	.	.	.	.	.	.	.	.	.	.	8qRe/	.	.	.	.	.	.	.	.	.	.	.	.	.	.	.
.	.	.	.	8c-X 8e-X	.	16c-X 16e-XLL	.	16f'LL	.	16f'LL	16ff'LL	.	.	.	.	.	16Re'\	.	.	.	8c-X'J 8e-X	.	8c-X'J 8e-X	.	16c-XLL 16e-)	.	8r	.	16fLL	.	.	.
.	.	.	.	.	.	16c-X 16e-X	.	16r	.	16r	16r	.	.	.	.	.	16r	.	8f'J	.	.	.	.	.	16r	.	.	.	16r	.	8ff'J	.
.	.	.	.	16r	.	16c-X 16e-XJJ	.	(16fJJ	.	16fJJ	(16ffJJ	.	.	.	.	.	16r	.	.	.	16r	.	16r	.	(16c-JJ 16e-	.	16r	.	(16fJJ	.	.	.
=12	=12	=12	=12	=12	=12	=12	=12	=12	=12	=12	=12	=12	=12	=12	=12	=12	=12	=12	=12	=12	=12	=12	=12	=12	=12	=12	=12	=12	=12	=12	=12	=12
!	!	!	!	!LO:TX:a:t=Div.	!	!	!	!	!	!	!	!	!	!	!	!	!	!	!	!	!	!	!	!	!	!	!	!	!	!	!	!
.	.	.	.	.	.	.	.	.	.	.	.	.	.	.	.	.	8qRe/	.	.	.	.	.	.	.	.	.	.	.	.	.	.	.
8B-'	.	8BB-' 8F 8d	.	16B-LL 16d	.	16B- 16dLL	.	16b-LL)	.	16b-LL	16bb-LL)	.	8%3r	8%3r	8%3r	8%3r	16Re'\	.	8b-'L	.	8B-' 8d	.	8B-'L 8d	.	16B-LL 16d)	.	16b-	.	16b-LL)	.	8bb-'L	.
.	.	.	.	16B- 16d	.	16B- 16d	.	16r	.	16r	16r	.	.	.	.	.	16r	.	.	.	.	.	.	.	16r	.	16r	.	16r	.	.	.
16r	.	16r	.	16B-JJ 16d	.	16B- 16dJJ	.	(16b-JJ	.	16b-JJ	(16bb-JJ	.	.	.	.	.	16r	.	8dd'	.	16r	.	16r	.	(16B-JJ 16d	.	16r	.	(16b-JJ	.	8ddd'	.
!	!	!	!	!	!	!LO:TX:a:t=Div.	!	!	!	!	!	!	!	!	!	!	!	!	!	!	!	!	!	!	!	!	!	!	!	!	!	!
.	.	.	.	.	.	.	.	.	.	.	.	.	.	.	.	.	8qRe/	.	.	.	.	.	.	.	.	.	.	.	.	.	.	.
8r	.	8r	.	16c-XLL 16e-	.	16c-X 16e-LL	.	16ddLL)	.	16ddLL	16dddLL)	.	.	.	.	.	16Re'\	.	.	.	8r	.	8c-X'J 8e-	.	16c-XLL 16e-)	.	16dd	.	16ddLL)	.	.	.
.	.	.	.	16c- 16e-	.	16c-X 16e-	.	16r	.	16r	16r	.	.	.	.	.	16r	.	8f'J	.	.	.	.	.	16r	.	16r	.	16r	.	8ff'J	.
16r	.	16r	.	16c-JJ 16e-	.	16c-X 16e-JJ	.	(16ddJJ	.	16ddJJ	(16dddJJ	.	.	.	.	.	16r	.	.	.	16r	.	16r	.	(16c-JJ 16e-	.	16r	.	(16ddJJ	.	.	.
!!pagebreak:original
=13	=13	=13	=13	=13	=13	=13	=13	=13	=13	=13	=13	=13	=13	=13	=13	=13	=13	=13	=13	=13	=13	=13	=13	=13	=13	=13	=13	=13	=13	=13	=13	=13
*	*	*	*	*tremolo	*	*	*	*	*	*	*	*	*	*	*	*	*	*	*	*	*	*	*	*	*	*	*	*	*	*	*	*
.	.	.	.	.	.	.	.	.	.	.	.	.	.	.	.	.	8qRe/	.	.	.	.	.	.	.	.	.	.	.	.	.	.	.
8%3r	.	8%3r	.	16cn 16enLL	.	16cn 16enLL	.	8.b-)	.	8.b-	8.bb-)	.	8%3r	8%3r	8%3r	8%3r	16Re'\	.	8b-'	.	8%3r	.	8cn'L 8en	.	16cLL 16eX)	.	16b-	.	8.b-)	.	8bb-'	.
.	.	.	.	16cn 16en	.	16cn 16en	.	.	.	.	.	.	.	.	.	.	16r	.	.	.	.	.	.	.	16r	.	16r	.	.	.	.	.
.	.	.	.	16cn 16enJJ	.	16cn 16enJJ	.	.	.	.	.	.	.	.	.	.	16r	.	8r	.	.	.	16r	.	(16cJJ 16e	.	16r	.	.	.	8r	.
!	!	!	!	!LO:TX:b:i:t=cresc.	!	!LO:TX:b:i:t=cresc.	!	!	!	!	!	!	!	!	!	!	!LO:TX:b:i:t=cresc.	!	!	!	!	!	!LO:TX:b:i:t=cresc.	!	!LO:TX:b:i:t=cresc.	!	!	!	!	!	!	!
.	.	.	.	.	.	.	.	.	.	.	.	.	.	.	.	.	8qRe/	.	.	.	.	.	.	.	.	.	.	.	.	.	.	.
.	.	.	.	16d-X 16fLL	.	16d-X 16fLL	.	8r	.	8r	8r	.	.	.	.	.	16Re'\	.	.	.	.	.	8d-X'J 8f	.	16d-XLL 16f)	.	8r	.	8r	.	.	.
.	.	.	.	16d-X 16f	.	16d-X 16f	.	.	.	.	.	.	.	.	.	.	16r	.	8r	.	.	.	.	.	16r	.	.	.	.	.	8r	.
.	.	.	.	16d-X 16fJJ	.	16d-X 16fJJ	.	16r	.	16r	16r	.	.	.	.	.	16r	.	.	.	.	.	16r	.	(16d-JJ 16f	.	16r	.	16r	.	.	.
=14	=14	=14	=14	=14	=14	=14	=14	=14	=14	=14	=14	=14	=14	=14	=14	=14	=14	=14	=14	=14	=14	=14	=14	=14	=14	=14	=14	=14	=14	=14	=14	=14
!	!	!	!	!	!	!	!	!	!	!	!	!	!	!	!	!	!	!	!	!	!	!	!	!	!	!	!	!	!LO:TX:b:i:t=cresc.	!	!	!
.	.	.	.	.	.	.	.	.	.	.	.	.	.	.	.	.	8qRe/	.	.	.	.	.	.	.	.	.	.	.	.	.	.	.
8%3r	.	8%3r	.	16dn 16f#XLL	.	16dn 16f#XLL	.	8%3r	.	8%3r	8%3r	.	8%3r	8%3r	8%3r	8%3r	16Re'\	.	8%3r	.	8%3r	.	8dn'L 8f#X	.	16dLL 16f#X)	.	8%3r	.	8dn^^ 8f#X	.	8%3r	.
.	.	.	.	16dn 16f#X	.	16dn 16f#X	.	.	.	.	.	.	.	.	.	.	16r	.	.	.	.	.	.	.	16r	.	.	.	.	.	.	.
.	.	.	.	16dn 16f#XJJ	.	16dn 16f#XJJ	.	.	.	.	.	.	.	.	.	.	16r	.	.	.	.	.	16r	.	(16dJJ 16f#	.	.	.	16r	.	.	.
.	.	.	.	.	.	.	.	.	.	.	.	.	.	.	.	.	8qRe/	.	.	.	.	.	.	.	.	.	.	.	.	.	.	.
.	.	.	.	16e- 16gLL	.	16e- 16gLL	.	.	.	.	.	.	.	.	.	.	16Re'\	.	.	.	.	.	8e-'J 8g	.	16e-LL 16g)	.	.	.	8e-^^ 8g	.	.	.
.	.	.	.	16e- 16g	.	16e- 16g	.	.	.	.	.	.	.	.	.	.	16r	.	.	.	.	.	.	.	16r	.	.	.	.	.	.	.
.	.	.	.	16e- 16gJJ	.	16e- 16gJJ	.	.	.	.	.	.	.	.	.	.	16r	.	.	.	.	.	16r	.	(16e-JJ 16g	.	.	.	16r	.	.	.
=15	=15	=15	=15	=15	=15	=15	=15	=15	=15	=15	=15	=15	=15	=15	=15	=15	=15	=15	=15	=15	=15	=15	=15	=15	=15	=15	=15	=15	=15	=15	=15	=15
.	.	.	.	.	.	.	.	.	.	.	.	.	.	.	.	.	8qRe/	.	.	.	.	.	.	.	.	.	.	.	.	.	.	.
8%3r	.	8%3r	.	16en 16g#XLL	.	16en 16g#XLL	.	8%3r	.	8%3r	8%3r	.	8%3r	8%3r	8%3r	8%3r	16Re'\	.	8%3r	.	8%3r	.	8en'L 8g#X	.	16f-XLL 16a-X)	.	8%3r	.	8en^^ 8g#X	.	8r	.
.	.	.	.	16en 16g#X	.	16en 16g#X	.	.	.	.	.	.	.	.	.	.	16r	.	.	.	.	.	.	.	16r	.	.	.	.	.	.	.
.	.	.	.	16en 16g#XJJ	.	16en 16g#XJJ	.	.	.	.	.	.	.	.	.	.	16r	.	.	.	.	.	16r	.	(16f-JJ 16a-	.	.	.	16r	.	8r	.
.	.	.	.	.	.	.	.	.	.	.	.	.	.	.	.	.	8qRe/	.	.	.	.	.	.	.	.	.	.	.	.	.	.	.
.	.	.	.	16f 16aLL	.	16f 16aLL	.	.	.	.	.	.	.	.	.	.	16Re'\	.	.	.	.	.	8f'J 8an	.	16f 16a)	.	.	.	8f^^ 8an	.	.	.
.	.	.	.	16f 16a	.	16f 16a	.	.	.	.	.	.	.	.	.	.	16r	.	.	.	.	.	.	.	16r	.	.	.	.	.	16r	.
!	!	!	!	!	!	!	!	!	!	!	!	!	!	!	!	!	!	!	!	!	!	!	!	!	!	!	!	!	!	!	!LO:TX:a:t=1	!
.	.	.	.	16f 16aJJ	.	16f 16aJJ	.	.	.	.	.	.	.	.	.	.	16r	.	.	.	.	.	16r	.	16r	.	.	.	16r	.	((16dd-X	p
*	*	*	*	*	*	*Xtremolo	*	*	*	*	*	*	*	*	*	*	*	*	*	*	*	*	*	*	*	*	*	*	*	*	*	*
*	*	*	*	*Xtremolo	*	*	*	*	*	*	*	*	*	*	*	*	*	*	*	*	*	*	*	*	*	*	*	*	*	*	*	*
=||	=||	=||	=||	=||	=||	=||	=||	=||	=||	=||	=||	=||	=||	=||	=||	=||	=||	=||	=||	=||	=||	=||	=||	=||	=||	=||	=||	=||	=||	=||	=||	=||
*-	*-	*-	*-	*-	*-	*-	*-	*-	*-	*-	*-	*-	*-	*-	*-	*-	*-	*-	*-	*-	*-	*-	*-	*-	*-	*-	*-	*-	*-	*-	*-	*-
!!!system-decoration: [(s1[(s2,s3)]s4,s5)][(s6,s7)]s8[({(s9,s10)})][({(s11,s12)})][({(s13,s14)})][([(s15,s16)]s17[(s18,s19)])]
